X:058
T:Honest Yorkshireman’s Hornpipe,The. TS.058
M:C|
L:1/8
Q:1/2=90
S:Thomas Sands’ MS,1810,Lincolnshire
R:.hornpipe
%%begintext
K:C
An Honest Yorkshireman
by Henry Carey (Died 1748)
I is i’ truth a coontry youth,
Nean used to Lunnon fashions;
Yet vartue guides, an’ still presides
Ower all my steps an’ passions.
Nea coortly leer, bud all sincere,
Nea bribe shall iver blinnd me ;
If thoo can like a Yorkshire tike,
A rogue thoo’ll niver finnd me.
Thof envy’s tongue, so slimly hung,
Would lee aboot oor coonty,
Nea men o’ t’ earth boast greater worth,
Or mair extend their boonty.
Oor northern breeze wi’ us agrees,
An’ does for wark weel fit us ;
I’ public cares, an’ love affairs,
Wi’ honour We acquit us.
Sea great a maand is ne’er confaand
‘Tiv onny shire or nation,
They gie un meast praise whea weel displays
A larned eddication;
Whaal rancour rolls i’ laatle souls,
By shallow views dissarnin’,
They’re nobbut wise at awlus prize
Good manners, sense, an’ larnin’.
%%endtext
O:England;Lincolnshire
Z:vmp.Ruairidh Greig, 2011
K:A
cd|ecac ecac|fedc B2cd|ecBA fdBA|GABGE2cd|
eceg fdfa|gegba2gf|eafd ceGB|”qu. in ms”A2A2A2:|
|:GA|BEdE BEdE|cEeE cEeE|fgaf gabd|c3B3 GA|
BEdE BEdE|cEeE cEeE|fadf ceGB|A4:|

